!!!!SEGMENT: pl-wn--sd-xvi-qu-273--062_gomolka-mikolaj--bogu-dusza-ufa-moja.krn
!!!cenid: 15xx:267
!!!COM: Gomółka, Mikołaj
!!!COM-rismid: pe30013343
!!!CDT: ~1535->1591/04/30
!!!CNT: Polish
!!!GTL: Melodiae na psalterz polski
!!!OTL: LXII. Bogu dusza ufa moja,
!!!ONB: PSALM LXII. Nonne Deo subiecta erit anima mea? ab ipso enim salutare meum.
!!!PDT: 1580
!!!AGN: Sacred
!!!SMS-siglum: PL-Wn
!!!SMS-shelfmark: SD XVI.Qu.273
!!!SMS-shelfwork: 062 G
!!!NIFC-rismid:
!!!ONB-nifc: Melodiae na psalterz polski
**kern	**text	**kern	**text	**kern	**text	**kern	**text
*part4	*part4	*part3	*part3	*part2	*part2	*part1	*part1
*staff4	*staff4	*staff3	*staff3	*staff2	*staff2	*staff1	*staff1
*clefF4	*	*clefC3	*	*clefC3	*	*clefC1	*
*k[b-]	*	*k[b-]	*	*k[b-]	*	*k[b-]	*
*c:	*	*c:	*	*c:	*	*c:	*
*M2/1	*	*M2/1	*	*M2/1	*	*M2/1	*
*met(C|)	*	*met(C|)	*	*met(C|)	*	*met(C|)	*
*I"BASSUS.	*	*I"TENOR.	*	*I"ALTUS.	*	*I"CANTUS.	*
*>[A,A,B]	*	*>[A,A,B]	*	*>[A,A,B]	*	*>[A,A,B]	*
=1-	=1	=1-	=1	=1-	=1	=1-	=1
*>A	*	*>A	*	*>A	*	*>A	*
*	*^	*	*^	*	*^	*	*^
1G\	Bo-	To	1B-/	Bo-	To	1d\	Bo-	To	1g\	Bo-	To
2D/	-gu	móy	2A/	-gu	móy	2d\	-gu	móy	2f/	-gu	móy
2G\	du-	za-	2B-/	du-	za-	2d\	du-	za-	2g/	du-	za-
=2-	=2	=2	=2-	=2	=2	=2-	=2	=2	=2-	=2	=2
1F\	-szá	-mek,	2.c/	-szá	-mek,	1f\	-szá	-mek,	2.a\	-szá	-mek,
.	.	.	4d\	u-	to	.	.	.	4b-\	u-	to
2C/	u-	to	4e\	.	.	2g\	u-	to	2cc\	-fa	ma
.	.	.	4d\	.	.	.	.	.	.	.	.
2D/	-fa	ma	4d\	-fa	ma	2f\	-fa	ma	1b-\	.	.
.	.	.	8c/L	.	.	.	.	.	.	.	.
.	.	.	8B-/J	mo-	zbro-	.	.	.	.	.	.
=3-	=3	=3	=3-	=3	=3	=3-	=3	=3	=3-	=3	=3
!LO:SIC:s=2E-:v	!	!	!	!	!	!	!	!	!	!	!
2E\	mo-	zbro-	1c\	.	.	2e-X\	.	.	.	.	.
2F\	.	.	.	.	.	4d\	mo-	zbro-	2a\	mo-	zbro-
.	.	.	.	.	.	4c\	.	.	.	.	.
1BB-/	-iá,	-iá:	1B-/	-iá,	-iá:	1d\	-iá,	-iá:	1b-\	-iá,	-iá:
*	*v	*v	*	*v	*v	*	*v	*v	*	*v	*v
=4:|!	=4	=4:|!	=4	=4:|!	=4	=4:|!	=4
*>B	*	*>B	*	*>B	*	*>B	*
1D\	W ná-	1A/	W ná-	1d\	W ná-	1f/	W ná-
2BB-/	-dźie-	4B-/	-dźie-	2d\	-dźie-	2g/	-dźie-
.	.	4A/	.	.	.	.	.
2GG/	-ię	4B-/	-ię	2g\	-ię	2b-\	-ię
.	.	4c/	ie-	.	.	.	.
=5-	=5	=5-	=5	=5-	=5	=5-	=5
2.D/	ie-	1d\	.	2f\	ie-	2.a\	ie-
.	.	.	.	4F/	.	.	.
4E\	.	.	.	4G/	.	4g/	.
!!LO:PB:g=original
2F\	-go	2c/	-go	2A/	-go	2f/	-go
2BB-/	za-	4B-/	.	4G/	.	4e/	.
.	.	4A/	.	4F/	.	4d/	.
=6-	=6	=6-	=6	=6-	=6	=6-	=6
1E\	-sło-	4G/	zá-	4G/	.	4c/	zá-
.	.	4F/	.	4A/	zá-	2d/	-sło-
.	.	2G/	-sło-	2G/	-sło-	.	.
.	.	.	.	.	.	4c/	-ny
!	!	!	!LO:SIC:s=ny,:v	!	!	!	!
2D/	-ny	2A/	-néy,	2F/	-ny,	2d/	.
2D/	Nie	2F/	Nie	2d\	Nie	2a\	Nie
=7-	=7	=7-	=7	=7-	=7	=7-	=7
2G\	bo-	2G/	bo-	2d\	bo-	2b-\	bo-
2F\	-ię	2A/	-ię	2d\	-ię	2a\	-ię
!LO:SIC:s=2E-:v	!	!	!	!	!	!	!
2E\	sye	2B-/	sye	2e-X\	sye	2g\	sye
2C/	z ża-	2c/	z ża-	2e-\	z ża-	4f/	z ża-
.	.	.	.	.	.	4e-X/	-dnéy
=8-	=8	=8-	=8	=8-	=8	=8-	=8
2D/	-dnéy	2A/	-dnéy	2.d\	-dnéy	4f/	.
.	.	.	.	.	.	2g\	stro-
2D/	stro-	2A/	stro-	.	.	.	.
.	.	.	.	4c\	stro-	4f/	-ny.
*000/left	*	*	*	*	*	*	*
000GG/	-ny.	000G/	-ny	000Bn/	-ny.	000g\	.
==	==	==	==	==	==	==	==
*-	*-	*-	*-	*-	*-	*-	*-
!!!RDF**kern: l = terminal long
!!!system-decoration: s1,s2,s3,s4
!!!ENC: Marta Lawrence
!!!END: 2020-02-10
!!!URL-scan: https://polona.pl/item/melodiae-na-psalterz-polski,Nzk3MTM4ODQ/156 Scan on Polona
!!!IIIF: https://polona.pl/iiif/item/Nzk3MTM4ODQ/manifest.json
